X:1
T:5 Hymnen
T:Jam sol recedit
T:Josef Rheinberger
T:Jam sol recedit
T:Nr. 2 aus Fünf Hymnen Op. 107
T:CPDL - Creative Commons Attribution Non Commercial 3.0
T:CPDL - Creative Commons Attribution Non Commercial 3.0
T:CPDL - Creative Commons Attribution Non Commercial 3.0
T:CPDL - Creative Commons Attribution Non Commercial 3.0
C:Josef Rheinberger
Z:CPDL - Creative Commons Attribution Non Commercial 3.0
%%score [ 1 2 3 4 ]
L:1/8
Q:1/4=72
M:4/4
K:F
V:1 treble nm="Sopran"
V:2 treble nm="Alt"
V:3 treble-8 nm="Tenor"
V:4 bass nm="Bass"
V:1
"^Andantino"!p! A2 |"^dolce" c3 B A2 GA | G3 F F4 | F2 B2 z!<(! Bcd!<)! |!>(! c3 A G4!>)! | %5
w: Jam|sol re- ce- dit _|ig- ne- us,|tu lux per- en- nis|u- ni- tas,|
!f! G2 c>d e2 e2 | f3 c e4 | G2 c>d eeee | f3 f e2 ec | =B2 A2 z ABc | (c2 G4) dc | c6 z2 | z8 | %13
w: nost- ris be- a- ta|tri- ni- tas,|in- fun- * de a- mo- rem|cor- di- bus, in- *|fun- de a- mo- rem|cor- * di- *|bus.||
!p! G4 Ge cA | (G2 F>E) D2 z2 | G3 G Ge cA | G6 z c | (c2!<(! =B)d d2 ^c!<)!!f!e | ed fe d=c _BA | %19
w: Te ma- * ne _|lau- * * dum,|lau- dum car- * mi- *|ne, te|de- * pre- ca- mur, te|de- * pre- * ca- * mur _|
 ^G>G!>(! A4!>)!!p! A2 | e2 c2 ^G2 A2 |!<(! e2 c2 ^G2 A2!<)! |!f! c2 E4 =BA | (G4"^dim." F4 | %24
w: ves- pe- re, dig-|ne- ris, ut te|sup- pli- ces lau-|de- mur in- ter|coe- *|
 E4) D4 | E4 z4 | z8 | z4!p! A2 A2 | (c3 B) A2 GA | G3 F!<(! F4!<)! |!f! F2 B3 Bcd | c3 A G4 | z8 | %33
w: * li-|tes.||Pat- ri|si- * mul- que _|fi- li- o,|ti- bi sanc- * te|spi- ri- tu,||
 z8 |!f! F2 B>c d2 dd | _e3 e d2 z!p! d | _e3 e d2 z!<(! B | c3 c!<)! B2!f! B2- | B2 AA G2 FF | %39
w: |si- cut _ fu- git sit|ju- gi- ter, sit|ju- gi- ter, sit|ju- gi- ter saec-|* lum~ per om- ni- a|
 A3 G G2!f! c2 | d2 e2 f2 c2 | A2 z2 z2 d2 | e2 f2 g4- | gfed c2 B2- | BAcB A2 G2 | F4!ff! F2 F2 | %46
w: glo- ri- a, a-||men, a-||||men, a- men,|
 (_e3 f) d4 | (c3 d) B2 (F2 | B3 c A2 G2) | !fermata!A6 |] %50
w: a- * men,|a- * men, a-||men.|
V:2
!p! F2 | E3 E E2 E2 | E3 F D4 | D2 F2 z!<(! FFE!<)! |!>(! F3 F E4!>)! |!f! E2 G>G G2 G2 | A3 A G4 | %7
w: |||||||
 E2 E2 c=BAG |"^cor -" FG"^di -" A=B"^bus" c2 G2 | F2 F2 z FFF | (E4 F2) F2 | E6 z2 | %12
w: |||||
!p! E2 A3 GFE | D>E F2 E2 z2 | E2 A3 GFE | D>E F2 E2 z E | F3!<(! D G2 G2!<)! | %17
w: Te ma- ne lau- dum|car- * mi- ne,|te de- pre- ca- mur|ves- * pe- re, te|de- pre- ca- mur|
"^ves -" G3"^pe - -" G"^re" G3!f! G | !^!F2 !^!F2 !^!F2 !^!F2 | F>F!>(! ^F4!>)!!p! =F2 | %20
w: |||
 E3 E D2 CF |!<(! E3 E _E2 E2!<)! |!f! =E4 E4 | (E2 D4)"^dim." C2- | C2 =B,4 A,2 | =B,4 z4 | z8 | %27
w: ||de- mur|in- * ter|_ coe- li-|tes.||
 z4!p! E2 E2 | E4 E2 E2 | E3 F!<(! D4!<)! |!f! D2 F3 F2 E | F2 F2 E4 |!f! C2 F>G A2 AA | B3 B A4 | %34
w: ||||spi- ri- tu,|si- cut * fu- git sit|ju- gi- ter,|
 z2!f! F2 FG AB | c2 BA!p! Bd cB | BA GF B2 z!<(! D | D3 D!<)! D2!f! G2- | G2 FF E2 DD | %39
w: fu- git * sit *|ju- gi- * ter, * sit *|ju- * gi- * ter, *|||
 F3 E E2 z2 | z4 z2!f! G2 | A2 B2 c2 A2 | G2 z2 z2 A2 | B2 c2 A2 G2- | GFAG F2 E2 | F4!ff! F2 F2 | %46
w: |a-||men, a-|||men, a- men,|
 F4 F4 | F4 F4 | (D4 C2 B,2) | !fermata!C6 |] %50
w: a- men,|a- men,|a- * *|men.|
V:3
!p! F2 | G3 G A2 Bc | B3 A A4 | B2 d2 z!<(! dcB!<)! |!>(! c3 c c4!>)! |!f! c2 c>=B c2 c2 | %6
w: Jam|sol re- ce- dit _|ig- ne- us,|tu lux per- en- nis|u- ni- tas,|nost- ris be- a- ta|
 c3 f e4 | c2 c2 cccc | c=B AG G2 ge | c2 c2 z c=BA | c6 =B2 | c2"^dim." c2 c2 c2 | %12
w: tri- ni- tas,|in fun- de a- mo- rem|cor- * di- * bus, in- *|fun- de a- mo- rem|cor- di-|bus. Te ma- ne|
!p! (c4!<(! =Bc) de!<)! | f2!>(! =B2 c2!>)! z2 | c4!<(! =Bcde!<)! |!>(! f2 =B2!>)! c2 z c | %16
w: lau- * * dum _|car- mi- ne,|te de- pre- ca- mur|ves- pe- re, te|
 (c2 =B)!<(!d (d2 c)e!<)! | (e2 d)=B _B3!f! B | !^!A2 !^!^G2 !^!A2 !^!B2 | =B>B!>(! c4!>)!!p! c2 | %20
w: de- * pre- ca- * mur|ves- * pe- re, te|de- pre- ca- mur|ves- pe- re, dig-|
 c3 c =B2 A2 |!<(! G3 c c2 =BA!<)! |!f! (G2 c4) c2 | (c2 =B4)"^dim." A2- | A2 ^G4 A2 | ^G4 z4 | %26
w: ne- ris, ut te|sup- pli- ces lau- *|de- * mur|in- * ter|_ coe- li-|tes.|
 z8 | z4!p! c2 c2 | (_B2 G2) c2 Bc | B3 A!<(! A4!<)! |!f! B2 d3 dcB | c3 c (c2 B2) | %32
w: |Pat- ri|si- * mul- que _|fi- li- o,|ti- bi sanc- * te|spi- ri- tu, _|
!f! A2 d2 c2 ff | fd e2 (f3 _e) | d3 c B2 ff | f3 f f2 z!p! B | (c2 B)A B2 z!<(! B | %37
w: si- cut fu- git sit|ju- * gi- ter, _|si- cut fu- git sit|ju- gi- ter, sit|ju- * gi- ter, sit|
 (A2 G)^F!<)! G2 z2 | B2 cc ^c2 dF | (F2 A)c c2 z2 | z2 c2 d2 e2 | f2 F2 G2 A2 | B2 c2 d2 e2 | %43
w: ju- * gi- ter|saec- lum per om- ni- a|glo- * ri- a,|a- * *|men, a- * *||
 f2 g3 fed | c3 d c3 B | A4!ff! d2 d2 | c4 B4- | B2 (A2 B2) d2 | (f4 F4) | !fermata!F6 |] %50
w: ||men, a- men,|a- men,|* a- * men,|a- *|men.|
V:4
!p! F,2 | C,3 C, C,2 C,2 | D,3 D, D,4 | B,,2 B,2 z!<(! B,A,G,!<)! |!>(! A,3 F, C,4!>)! | %5
w: |||||
!f! C,2 E,>G, C2 C2 | F,3 A, C4 | C=B, B,A, A,G,F,E, | D,3 G,, C,2 C,E, | F,2 F,2 z F,G,A, | %10
w: |||cor- di- bus, * *||
 G,6 G,,2 | C,6 z2 |!p! C,2 F,3 E,D,C, | =B,,2 D,2 C,2 z2 | C,2 F,3 E,D,C, | =B,,2 D,2 C,2 z C, | %16
w: ||Te ma- ne lau- dum|car- mi- ne,|te de- pre- ca- mur|ves- pe- re, *|
 D,3!<(! F, E,3 G,!<)! | F,3 F, E,3!f! ^C, | !^!D,2 !^!D,2 !^!D,2 !^!D,2 | D,7/2 D,/ ^D,2!p! D,2 | %20
w: |||ves- pe- re, *|
 E,3 E, F,2 F,2 |!<(! C,3 C, ^F,,2 F,,2!<)! |!f! (G,,4 C,2) E,2 | G,4"^dim." D,4 | E,4 F,4 | %25
w: ||de- * mur|in- ter|coe- li-|
 E,4!f! E,2 E,2 | (F,3 E,) D,2 C,D, | E,>E,"^dim." E,4!p! E,2 | C,6 C,2 | D,3 D,!<(! D,4!<)! | %30
w: tes. Pat- ri|si- * mul- que _|fi- li- o, si-|mul- que|fi- li- o,|
!f! B,,2 B,3 B,A,G, | A,3 F, C,4 |!f! F,6 F,2 | G,2 ^C,C, D,2 F,2 | B,,4 z2 z!f! B,- | %35
w: ||si- cut|fu- git sit ju- gi-|ter, si-|
 B,A, G,F, B,2 F,!p!F, | F,3 F, G,B, A,!<(!G, | G,^F, E,D,!<)! G,2 z2 | G,,2 A,,A,, B,,2 =B,,B,, | %39
w: * * cut _ fu- git sit|ju- gi- ter, _ sit _|ju- * gi- * ter||
 C,3 C, C,2 z2 | z8 | z2!f! D,2 E,2 F,2 | G,2 A,2 B,2 ^C,2 | D,2 E,2 F,2 G,,2 | A,,3 B,, C,4 | %45
w: ||a- * *||* * men, a-||
 D,4!ff! B,,2 B,,2- | B,,2 A,,2 B,,2 D,2 | (_E,3 F,) D,2 (B,,2 | F,,2 F,4 F,,2) | !fermata!F,,6 |] %50
w: men, a- men,|_ a- men, a-|* * men, a-||men.|

